X:1
T:Title
%%score { 1 | ( 2 3 ) }
L:1/8
M:3/2
K:Ab
V:1 treble nm="Grand Piano"
V:2 bass 
V:3 bass 
V:1
 z4 z2[Q:1/4=116] [CE]2 [CE]2 [CE]2 | [CA]6 [CA]2 B2 c2 | [CA]8 E4 | F6 D2 A2 F2 | %4
 [CE]6 [CE]2 [CE]2 [CE]2 | [EA]6 [EA]2 B2 c2 | d8 [Ec]4 | [A,DF]6 [DFB]2 A2 G2 | A6 e2 e2 e2 | %9
 e3 [Fd] [Ec]4 [DB]4 |[M:3/4] [CA]6 |] %11
V:2
 z4 z2 [A,,A,]2 [A,,A,]2 [A,,A,]2 | [A,,E,]6 [A,,E,]2 [E,D]2 [E,E]2 | [A,,E,]8 [C,A,]4 | %3
 [D,A,D]6 [D,F,]2 [D,F,D]2 [D,A,D]2 | [A,,A,]6 [A,,A,]2 [A,,A,]2 [A,,A,]2 | %5
 [C,A,]6 [C,A,]2 [E,G,E]2 [A,E]2 | [E,B,E]8 [A,,A,]4 | D,6 B,,2 [E,CE]2 [E,B,D]2 | %8
 [A,C]6 [E,G,E]2 [F,A,E]2 [G,B,E]2 | A,8 z4 |[M:3/4] [A,,A,]6 |] %11
V:3
 x12 | x12 | x12 | x12 | x12 | x12 | x12 | x12 | x12 | C3 D, E,4 [E,G,]4 |[M:3/4] x6 |] %11

